!!!OTL: La Cucaracha
!!!COM: unknown
!!!ODT: unknown
!!!YOR: The Folksong Fake Book
!!!YOY: 2000
!!!AST: Folk song
!!!YEC: Brian Luke, 2001
**kern	**harm
*k[f#]	*k[f#]
*M4/4	*M4/4
*G:	*G:
*>A	*>A
=1	=1
8r	I
4d	.
8d	.
8g	.
8g	.
8b	.
8b	.
=2	=2
4.dd	.
[8b	.
2b]	.
=3	=3
8r	.
4dd	.
8ee	.
8dd	.
8cc	.
8b	.
8dd	.
=4	=4
4.cc	V7
[8a	.
2a]	.
=5	=5
8r	.
4d	.
8d	.
8f#	.
8f#	.
8a	.
8a	.
=6	=6
4.cc	.
[8a	.
2a]	.
=7	=7
8r	.
4dd	.
8ee	.
8dd	.
8cc	.
8b	.
8a	.
=8	=8
[2g	I;
8g]	.
*>B	*>B
8d	I
8d	.
8d	.
=9	=9
4.g	.
4b	.
8d	.
8d	.
8d	.
=10	=10
4.g	.
[8b	.
2b]	.
=11	=11
8r	.
4g	.
8g	.
8f#	.
8f#	.
8e	.
8e	.
=12	=12
[2d	V7
8d]	.
8d	.
8d	.
8d	.
=13	=13
4.f#	.
4a	.
8d	.
8d	.
8d	.
=14	=14
4.f#	.
[8a	.
2a]	.
=15	=15
8r	.
4dd	.
8ee	.
8dd	.
8cc	.
8b	.
8a	.
=16	=16
4g	I
4r	.
8r	.
*>B	*>B
8d	I
8d	.
8d	.
=17	=17
4.g	.
4b	.
8d	.
8d	.
8d	.
=18	=18
4.g	.
[8b	.
2b]	.
=19	=19
8r	.
4g	.
8g	.
8f#	.
8f#	.
8e	.
8e	.
=20	=20
[2d	V7
8d]	.
8d	.
8d	.
8d	.
=21	=21
4.f#	.
4a	.
8d	.
8d	.
8d	.
=22	=22
4.f#	.
[8a	.
2a]	.
=23	=23
8r	.
4dd	.
8ee	.
8dd	.
8cc	.
8b	.
8a	.
=24	=24
1g	I;
*-	*-
